X:1028
T:Stronsay Voe Waltz
C:Joe Buchanan's Scottish Tome - Page 618.1
I:618 1
Z:Carl Allison
R:Waltz
L:1/4
M:3/4
K:A
e/d/ | c2 B/ (c/d/) | e c A | d2 c/ (d/e/) | f a f | (e c) A | (A c) e | B3- | B2 (e/d/) | 
c2 B/ (c/d/) | e c A | d2 c/ (d/e/) | f a f | (e c) A | A2 e | A3- | A2 :|  
e | a2 g/ (a/f/) | e c A | d2 c/ (d/e/) | f a f | (e c) A | A (c e) | B3- | B2 e | 
a2 g/ (a/f/) | e c A | d2 c/ d/e/ | f a f | (e c) A | (B2 e) | A3- | A2 :| 

